nameplates/mo_krill.svg

<svg width="1346" height="474" viewBox="0 0 1346 474" fill="none" xmlns="http://www.w3.org/2000/svg">
<g clip-path="url(#clip0_22600_393)">
<path d="M650.874 462.21L468.953 458.717C432.897 457.625 418.365 440.923 419.567 404.898L430.711 50.7623C431.804 14.7375 447.428 -0.982495 483.376 0.109168L665.297 3.60249C701.354 4.69415 716.432 21.3966 715.339 57.4215L704.194 411.557C703.102 447.582 686.931 463.302 650.874 462.101V462.21ZM592.638 183.072L557.783 182.635L554.724 279.357L589.578 279.793L592.638 183.072Z" fill="white"/>
<path d="M899.555 456.97L869.399 237V456.97H821.433V5.23999H869.399V211.564L897.807 5.23999H945.773V6.98665L910.809 224.009L948.723 455.223V456.97H899.555Z" fill="white"/>
<path d="M1039.74 451.621L1015.48 261.781V206.979H1031.65V55.6748H1009.15V451.621H962.381V10.6983H1044.44C1069.24 10.6983 1079.07 20.5233 1079.07 45.304V209.818C1079.07 230.559 1073.28 237.546 1059.41 239.838L1055.91 240.384L1085.41 449.328V451.621H1039.74Z" fill="white"/>
<path d="M1100.82 451.621V10.6983H1147.58V451.621H1100.82Z" fill="white"/>
<path d="M1171.07 451.621V10.6983H1217.84V403.697H1251.93V451.621H1171.07Z" fill="white"/>
<path d="M1265.15 441.796V0.873322H1311.91V393.872H1346V441.796H1265.15Z" fill="white"/>
<path d="M231.854 12.2266L392.36 9.38831V468.214L236.115 471.053V331.756C236.115 313.744 234.695 286.016 234.695 286.016L210.33 422.474L176.786 425.421L152.421 289.4C152.421 289.4 150.891 316.801 150.891 334.813V474.109L0 469.306V10.3708L152.093 12.2266C152.093 12.2266 192.083 202.94 192.629 219.752L231.854 12.2266Z" fill="white"/>
<path d="M770.079 252.065V280.667H749.429V252.065H721.021V233.179H749.429V204.578H770.079V233.179H798.487V252.065H770.079Z" fill="white"/>
</g>
<defs>
<clipPath id="clip0_22600_393">
<rect width="1346" height="474" fill="white"/>
</clipPath>
</defs>
</svg>

<svg xmlns="http://www.w3.org/2000/svg" width="1346" height="474" fill="none"><g fill="#fff" clip-path="url(#a)"><path d="m650.874 462.21-181.921-3.493c-36.056-1.092-50.588-17.794-49.386-53.819l11.144-354.136C431.804 14.738 447.428-.982 483.376.11l181.921 3.493c36.057 1.092 51.135 17.795 50.042 53.82l-11.145 354.135c-1.092 36.025-17.263 51.745-53.32 50.544zm-58.236-279.138-34.855-.437-3.059 96.722 34.854.436zM899.555 456.97 869.399 237v219.97h-47.966V5.24h47.966v206.324L897.807 5.24h47.966v1.747l-34.964 217.022 37.914 231.214v1.747zm140.185-5.349-24.26-189.84v-54.802h16.17V55.675h-22.5V451.62h-46.769V10.698h82.059c24.8 0 34.63 9.825 34.63 34.606v164.514c0 20.741-5.79 27.728-19.66 30.02l-3.5.546 29.5 208.944v2.293zm61.08 0V10.698h46.76v440.923zm70.25 0V10.698h46.77v392.999h34.09v47.924zm94.08-9.825V.873h46.76v392.999H1346v47.924zM231.854 12.227 392.36 9.388v458.826l-156.245 2.839V331.756c0-18.012-1.42-45.74-1.42-45.74L210.33 422.474l-33.544 2.947L152.421 289.4s-1.53 27.401-1.53 45.413v139.296L0 469.306V10.371l152.093 1.856s39.99 190.713 40.536 207.525zm538.225 239.838v28.602h-20.65v-28.602h-28.408v-18.886h28.408v-28.601h20.65v28.601h28.408v18.886z"/></g><defs><clipPath id="a"><path fill="#fff" d="M0 0h1346v474H0z"/></clipPath></defs></svg>
